!!!COM: Olivier (Eugène Prosper Charles) Messiaen
!!!OTL: [T775_Mes-w22p371h3m3-12]
**kern	**dynam	**kern	**dynam	**kern	**dynam	**kern	**dynam	**kern	**dynam	**kern	**dynam	**kern	**kern	**dynam	**kern	**dynam	**kern	**kern	**dynam	**kern	**dynam	**kern	**dynam	**kern	**dynam	**kern	**dynam	**kern	**dynam	**kern	**dynam	**kern	**dynam	**kern	**dynam	**kern	**dynam	**kern	**dynam	**kern	**dynam
*part21	*part21	*part20	*part20	*part19	*part19	*part18	*part18	*part17	*part17	*part16	*part16	*part15	*part14	*part14	*part13	*part13	*part12	*part12	*part12	*part11	*part11	*part10	*part10	*part9	*part9	*part8	*part8	*part7	*part7	*part6	*part6	*part5	*part5	*part4	*part4	*part3	*part3	*part2	*part2	*part1	*part1
*staff22	*	*staff21	*	*staff20	*	*staff19	*	*staff18	*	*staff17	*	*staff16	*staff15	*	*staff14	*	*staff13	*staff12	*	*staff11	*	*staff10	*	*staff9	*	*staff8	*	*staff7	*	*staff6	*	*staff5	*	*staff4	*	*staff3	*	*staff2	*	*staff1	*
*I"P22	*	*I"Violoncello Divisi	*	*I"P20	*	*I"Viola Divisi	*	*I"P18	*	*I"Violin II Divisi	*	*I"P16	*I"Violin I Divisi	*	*I"Ondes Martenot	*	*I"Piano	*	*	*I"Celesta	*	*I"Glockenspiel	*	*I"China Cymbal	*	*I"Maracas	*	*I"Small Cymbal	*	*I"3 Bassoons	*	*I"2 Clarinets in A	*	*I"English Horn	*	*I"2 Oboes	*	*I"2 Flutes	*	*I"Piccolo	*
*I'Vc.	*	*I'Vc.	*	*I'Vla.	*	*I'Vla.	*	*I'Vln. II	*	*I'Vln. II	*	*I'Vln. I	*I'Vln. I	*	*	*	*I'Pno.	*	*	*I'Cel.	*	*I'Glock.	*	*I'Perc.	*	*I'Perc.	*	*I'Perc.	*	*I'Bsn.	*	*I'Cl.	*	*I'C. A.	*	*I'Ob.	*	*I'Fl.	*	*I'Picc.	*
!!pagebreak:original
*clefF4	*	*clefF4	*	*clefC3	*	*clefC3	*	*clefG2	*	*clefG2	*	*clefG2	*clefG2	*	*clefG2	*	*clefG2	*clefG2	*	*clefG2	*	*clefG2	*	*clefX	*	*clefX	*	*clefX	*	*clefF4	*	*clefG2	*	*clefG2	*	*clefG2	*	*clefG2	*	*clefG2	*
*	*	*	*	*	*	*	*	*	*	*	*	*	*	*	*	*	*	*	*	*ITrd0c0	*	*ITrd0c0	*	*	*	*	*	*	*	*	*	*ITrd2c3	*	*ITrd4c7	*	*	*	*	*	*ITrd0c0	*
*k[]	*	*k[]	*	*k[]	*	*k[]	*	*k[]	*	*k[]	*	*k[]	*k[]	*	*k[]	*	*k[]	*k[]	*	*k[]	*	*k[]	*	*k[]	*	*k[]	*	*k[]	*	*k[]	*	*k[f#c#g#]	*	*k[b-]	*	*k[]	*	*k[]	*	*k[]	*
*	*	*	*	*	*	*	*	*	*	*	*	*	*	*	*	*	*	*	*	*	*	*	*	*C:	*	*C:	*	*C:	*	*	*	*	*	*	*	*	*	*	*	*	*
*M3/16	*	*M3/16	*	*M3/16	*	*M3/16	*	*M3/16	*	*M3/16	*	*M3/16	*M3/16	*	*M3/16	*	*M3/16	*M3/16	*	*M3/16	*	*M3/16	*	*M3/16	*	*M3/16	*	*M3/16	*	*M3/16	*	*M3/16	*	*M3/16	*	*M3/16	*	*M3/16	*	*M3/16	*
=1	=1	=1	=1	=1	=1	=1	=1	=1	=1	=1	=1	=1	=1	=1	=1	=1	=1	=1	=1	=1	=1	=1	=1	=1	=1	=1	=1	=1	=1	=1	=1	=1	=1	=1	=1	=1	=1	=1	=1	=1	=1
!	!	!	!	!	!	!	!	!	!	!	!	!	!LO:TX:t=[eighth-dot]=100	!	!	!	!	!	!	!	!	!	!	!	!	!	!	!	!	!	!	!	!	!	!	!	!	!	!	!	!
!LO:TX:b:t=[f]	!	!LO:TX:b:t=[f]	!	!LO:TX:b:t=[f]	!	!LO:TX:b:t=[f]	!	!LO:TX:b:t=[f]	!	!LO:TX:b:t=[f]	!	!LO:TX:b:t=[f]	!LO:TX:b:t=[f]	!	!LO:TX:b:t=[f]	!	!	!LO:TX:b:t=[f]	!	!LO:TX:b:t=[f]	!	!LO:TX:b:t=[f]	!	!LO:TX:b:t=[mp]	!	!	!	!LO:TX:b:t=[p]	!	!	!	!	!	!	!	!	!	!	!	!LO:TX:t=[eighth-dot]=100	!
16B-XKL	.	16B-XKL	.	16cnKL	.	16cnKL	.	16dd#XKL	.	16dd#XKL	.	16dnKL	16dnKL	.	16dnKL	.	16%3r	16d#XKL 16ddn	.	16ddKL	.	16dKL	.	[8.Rf/	.	16%3r	.	[8.Rcc\	.	16%3r	.	16%3r	.	16%3r	.	16%3r	.	16%3r	.	16%3r	.
8CCnJ	.	8CCnJ	.	8EnJ	.	8EnJ	.	8cc#XJ	.	8cc#XJ	.	8e-XJ	8e-XJ	.	8cc#XJ	.	.	8cc#XJ 8ccc#X	.	8ccc#XJ	.	8cc#XJ	.	.	.	.	.	.	.	.	.	.	.	.	.	.	.	.	.	.	.
=2	=2	=2	=2	=2	=2	=2	=2	=2	=2	=2	=2	=2	=2	=2	=2	=2	=2	=2	=2	=2	=2	=2	=2	=2	=2	=2	=2	=2	=2	=2	=2	=2	=2	=2	=2	=2	=2	=2	=2	=2	=2
!	!	!	!	!	!	!	!	!	!	!	!	!	!	!	!	!	!	!	!	!	!	!	!	!	!	!	!	!	!	!LO:TX:a:t=1. et 2.	!	!	!	!	!	!	!	!	!	!	!
16%3r	.	16%3r	.	16%3r	.	16%3r	.	16%3r	.	16%3r	.	16%3r	16%3r	.	(16dd#XKL	.	16%3r	16%3r	.	16%3r	.	16%3r	.	8.Rf/]	.	16%3r	.	8.Rcc\]	.	8.e	f	(16ccXKL 16ff#	f	(16b-KL	f	(16ee-XKL 16ccc-X	f	(16ddd-XKL 16ggg	f	(16ggKL	f
.	.	.	.	.	.	.	.	.	.	.	.	.	.	.	8ddnJ)	.	.	.	.	.	.	.	.	.	.	.	.	.	.	.	.	8bJ 8gg#)	.	8aJ)	.	8ddnJ 8gg-X)	.	8bb-XJ 8fff)	.	8ffJ)	.
=3	=3	=3	=3	=3	=3	=3	=3	=3	=3	=3	=3	=3	=3	=3	=3	=3	=3	=3	=3	=3	=3	=3	=3	=3	=3	=3	=3	=3	=3	=3	=3	=3	=3	=3	=3	=3	=3	=3	=3	=3	=3
*	*	*	*	*	*	*	*	*	*	*	*	*	*	*	*	*	*	*	*	*	*	*	*	*	*	*	*	*	*	*	*	*	*	*	*	*^	*	*	*	*	*
16%3r	.	16%3r	.	16%3r	.	16%3r	.	16%3r	.	16%3r	.	16%3r	16%3r	.	(16cc#XKL	.	16%3r	16%3r	.	16%3r	.	16%3r	.	16%3r	.	16Ra/LL	mf	16%3r	.	8.d	.	(16f#KL 16cc#	.	8.e	.	(16ggnKL	(16aanKL	.	(16eee-XKL 16ggg	.	(16ggKL	.
.	.	.	.	.	.	.	.	.	.	.	.	.	.	.	8dd#XJ)	.	.	.	.	.	.	.	.	.	.	16Ra/	.	.	.	.	.	8a#XJ 8dd#X)	.	.	.	8aa-XJ)	8ffJ)	.	8ddd-XJ 8fff)	.	8ffJ)	.
.	.	.	.	.	.	.	.	.	.	.	.	.	.	.	.	.	.	.	.	.	.	.	.	.	.	[16Ra/JJ	.	.	.	.	.	.	.	.	.	.	.	.	.	.	.	.
*	*	*	*	*	*	*	*	*	*	*	*	*	*	*	*	*	*	*	*	*	*	*	*	*	*	*	*	*	*	*	*	*	*	*	*	*v	*v	*	*	*	*	*
=4	=4	=4	=4	=4	=4	=4	=4	=4	=4	=4	=4	=4	=4	=4	=4	=4	=4	=4	=4	=4	=4	=4	=4	=4	=4	=4	=4	=4	=4	=4	=4	=4	=4	=4	=4	=4	=4	=4	=4	=4	=4
16%3r	.	16%3r	.	16%3r	.	16%3r	.	16%3r	.	16%3r	.	16%3r	16%3r	.	8.ccc#X~	.	16%3r	16%3r	.	16%3r	.	16%3r	.	16r	.	16Ra/]	.	16r	.	[8.c#X~	.	8d#X~L 8b	.	8f#X~L	.	8a-X~L 8ff	.	8ccc~L 8ggg	.	8gg~L	.
.	.	.	.	.	.	.	.	.	.	.	.	.	.	.	.	.	.	.	.	.	.	.	.	[8Rf/	p	16r	.	[8Rcc\	p	.	.	.	.	.	.	.	.	.	.	.	.
.	.	.	.	.	.	.	.	.	.	.	.	.	.	.	.	.	.	.	.	.	.	.	.	.	.	16r	.	.	.	.	.	[16e~Jk [16a	.	[16bX~Jk	.	[16g-X~Jk [16ee-X	.	[16bb-X~Jk [16fff	.	[16ff~Jk	.
=5	=5	=5	=5	=5	=5	=5	=5	=5	=5	=5	=5	=5	=5	=5	=5	=5	=5	=5	=5	=5	=5	=5	=5	=5	=5	=5	=5	=5	=5	=5	=5	=5	=5	=5	=5	=5	=5	=5	=5	=5	=5
16r	.	16r	.	16r	.	16r	.	16r	.	16r	.	16r	16r	.	16r	.	16r	16%3r	.	16r	.	16r	.	16Rf/KL]	.	16%3r	.	16Rcc\KL]	.	16c#X]	.	16e] 16a]	.	16bX]	.	16g-X] 16ee-X]	.	16bb-X] 16fff]	.	16ff]	.
16CLL	f	16CLL	f	16F#XLL	f	16b-XLL	f	16gnLL	f	16b-XLL	f	16BnLL	16BnLL	f	16gnLL	f	16BnLL 16g	.	f	16ggnLL	f	16gnLL	f	[8Rf/J	.	.	.	[8Rcc\J	.	16r	.	16r	.	16r	.	16r	.	16r	.	16r	.
16E-XJJ	.	16E-XJJ	.	16G#XJJ	.	16anJJ	.	16c#XJJ	.	16aJJ	.	16c#XJJ	16c#XJJ	.	16c#XJJ	.	16c#XJJ 16a	.	.	16cc#XJJ	.	16c#XJJ	.	.	.	.	.	.	.	16r	.	16r	.	16r	.	16r	.	16r	.	16r	.
=6	=6	=6	=6	=6	=6	=6	=6	=6	=6	=6	=6	=6	=6	=6	=6	=6	=6	=6	=6	=6	=6	=6	=6	=6	=6	=6	=6	=6	=6	=6	=6	=6	=6	=6	=6	=6	=6	=6	=6	=6	=6
16BB-XLL	.	16BB-XLL	.	16ELL	.	16b-XLL	.	16a#XLL	.	16a-XLL	.	16AnLL	16AnLL	.	16g#XLL	.	16%3r	16eenLL 16bb-X	.	16gg#XLL	.	16g#XLL	.	16Rf/KL]	.	16%3r	.	16Rcc\KL]	.	16%3r	.	16%3r	.	16%3r	.	16%3r	.	16%3r	.	16%3r	.
16C	.	16C	.	16F#X	.	16a-X	.	16g#X	.	16g	.	16B	16B	.	16gn	.	.	16ccn 16ff#X	.	16ggn	.	16gn	.	[8Rf/J	.	.	.	[8Rcc\J	.	.	.	.	.	.	.	.	.	.	.	.	.
16E-XJJ	.	16E-XJJ	.	16BnJJ	.	16dnJJ	.	16c#XJJ	.	16ddJJ	.	16c#XJJ	16a-XJJ	.	16c#XJJ	.	.	16cc#XJJ 16gg#X	.	16cc#XJJ	.	16c#XJJ	.	.	.	.	.	.	.	.	.	.	.	.	.	.	.	.	.	.	.
=7	=7	=7	=7	=7	=7	=7	=7	=7	=7	=7	=7	=7	=7	=7	=7	=7	=7	=7	=7	=7	=7	=7	=7	=7	=7	=7	=7	=7	=7	=7	=7	=7	=7	=7	=7	=7	=7	=7	=7	=7	=7
16BB-XLL	.	16BB-XLL	.	16GnLL	.	16c#XLL	.	16cc#XLL	.	16f#XLL	.	16cnLL	16fLL	.	16cnLL	.	16%3r	16ffnLL 16ggn	.	16ccnLL	.	16cnLL	.	8.Rf/_	.	16%3r	.	8.Rcc\_	.	16%3r	.	16%3r	.	16%3r	.	16%3r	.	16%3r	.	16%3r	.
16B-X	.	16B-X	.	16cn	.	16cn	.	16dd#X	.	16dd#X	.	16dn	16dn	.	16dn	.	.	16d#X 16ddn	.	16ddn	.	16dn	.	.	.	.	.	.	.	.	.	.	.	.	.	.	.	.	.	.	.
[16CCnJJ	.	[16CCnJJ	.	[16EnJJ	.	[16EnJJ	.	[16cc#XJJ	.	[16cc#XJJ	.	[16e-XJJ	[16e-XJJ	.	[16cc#XJJ	.	.	[16cc#XJJ [16ccc#X	.	[16ccc#XJJ	.	[16cc#XJJ	.	.	.	.	.	.	.	.	.	.	.	.	.	.	.	.	.	.	.
=8	=8	=8	=8	=8	=8	=8	=8	=8	=8	=8	=8	=8	=8	=8	=8	=8	=8	=8	=8	=8	=8	=8	=8	=8	=8	=8	=8	=8	=8	=8	=8	=8	=8	=8	=8	=8	=8	=8	=8	=8	=8
16CC]	.	16CC]	.	16E]	.	16E]	.	16cc#X]	.	16cc#X]	.	16e-X]	16e-X]	.	16cc#XLL]	.	16%3r	16cc#X] 16ccc#X]	.	16ccc#X]	.	16cc#X]	.	16Rf/]	.	16r	.	16Rcc\]	.	16r	.	16r	.	16r	.	16r	.	16r	.	16r	.
!	!	!	!	!	!	!	!	!	!	!	!	!	!	!	!	!	!	!	!	!	!	!	!	!	!	!	!	!	!	!LO:TX:a:t=1. et 2.	!	!	!	!	!	!	!	!	!	!	!
16r	.	16r	.	16r	.	16r	.	16r	.	16r	.	16r	16r	.	(16dd#X	.	.	16r	.	16r	.	16r	.	16r	.	16Ra/LL	mf	16r	.	[8e	f	(16ccXLL 16ff#	f	(16b-LL	f	(16ee-XLL 16ccc-X	f	(16ddd-XLL 16ggg	f	(16ggLL	f
16r	.	16r	.	16r	.	16r	.	16r	.	16r	.	16r	16r	.	[16ddnJJ)	.	.	16r	.	16r	.	16r	.	16r	.	16Ra/JJ	.	16r	.	.	.	[16bJJ [16gg#)	.	[16aJJ)	.	[16ddnJJ [16gg-X)	.	[16bb-XJJ [16fff)	.	[16ffJJ)	.
=9	=9	=9	=9	=9	=9	=9	=9	=9	=9	=9	=9	=9	=9	=9	=9	=9	=9	=9	=9	=9	=9	=9	=9	=9	=9	=9	=9	=9	=9	=9	=9	=9	=9	=9	=9	=9	=9	=9	=9	=9	=9
*	*	*	*	*	*	*	*	*	*	*	*	*	*	*	*	*	*	*	*	*	*	*	*	*	*	*	*	*	*	*	*	*	*	*	*	*^	*	*	*	*	*
16%3r	.	16%3r	.	16%3r	.	16%3r	.	16%3r	.	16%3r	.	16%3r	16%3r	.	16ddLL]	.	16%3r	16%3r	.	16%3r	.	16%3r	.	16%3r	.	16Ra/KL	.	16%3r	.	16eKL]	.	16bLL] 16gg#]	.	16aKL]	.	16gg-XLL]	16ddnLL]	.	16bb-XLL] 16fff]	.	16ffLL]	.
.	.	.	.	.	.	.	.	.	.	.	.	.	.	.	(16cc#X	.	.	.	.	.	.	.	.	.	.	8Ra/J	.	.	.	[8dJ	.	(16f# 16cc#	.	[8eJ	.	(16ggn	(16aan	.	(16eee-X 16ggg	.	(16gg	.
.	.	.	.	.	.	.	.	.	.	.	.	.	.	.	[16dd#XJJ)	.	.	.	.	.	.	.	.	.	.	.	.	.	.	.	.	[16a#XJJ [16dd#X)	.	.	.	[16aa-XJJ)	[16ffJJ)	.	[16ddd-XJJ [16fff)	.	[16ffJJ)	.
*	*	*	*	*	*	*	*	*	*	*	*	*	*	*	*	*	*	*	*	*	*	*	*	*	*	*	*	*	*	*	*	*	*	*	*	*v	*v	*	*	*	*	*
=10	=10	=10	=10	=10	=10	=10	=10	=10	=10	=10	=10	=10	=10	=10	=10	=10	=10	=10	=10	=10	=10	=10	=10	=10	=10	=10	=10	=10	=10	=10	=10	=10	=10	=10	=10	=10	=10	=10	=10	=10	=10
16%3r	.	16%3r	.	16%3r	.	16%3r	.	16%3r	.	16%3r	.	16%3r	16%3r	.	16dd#XKL]	.	16%3r	16%3r	.	16%3r	.	16%3r	.	8.Rf/	p	16%3r	.	8.Rcc\	p	16dKL]	.	16a#XKL] 16dd#X]	.	16eKL]	.	16ffKL] 16aa-X]	.	16ddd-XKL] 16fff]	.	16ffKL]	.
.	.	.	.	.	.	.	.	.	.	.	.	.	.	.	[8ccc#XJ	.	.	.	.	.	.	.	.	.	.	.	.	.	.	[8c#X~J	.	8d#X~J 8b	.	8f#X~J	.	8a-X~J 8ff	.	8ccc~J 8ggg	.	8gg~J	.
=	=	=	=	=	=	=	=	=	=	=	=	=	=	=	=	=	=	=	=	=	=	=	=	=	=	=	=	=	=	=	=	=	=	=	=	=	=	=	=	=	=
*-	*-	*-	*-	*-	*-	*-	*-	*-	*-	*-	*-	*-	*-	*-	*-	*-	*-	*-	*-	*-	*-	*-	*-	*-	*-	*-	*-	*-	*-	*-	*-	*-	*-	*-	*-	*-	*-	*-	*-	*-	*-
!!!system-decoration: [(s1,s2,s3,s4,s5,s6)][(s7,s8,s9)][(s10,s11)][({(s12,s13)})][(s14)][([(s15,s16)][(s17,s18)][(s19,s20)][(s21,s22)])]
